!!!COA:	Josquin des Prez
!!!CDT:	~1450-1521/08/27
!!!OPR:	Missa Allez regretz I
!!!ONM:	1
!!!OTL:	Kyrie
!!!AGN:	Mass; Kyrie
!!!SCT:	NJE 7.1
!!!SCA:	New Josquin Edition 7.1
!!!voices:	4
!!!voices-OPR:	4
**kern	**kern	**kern	**kern
*staff4	*staff3	*staff2	*staff1
*Ivox	*Ivox	*Ivox	*Ivox
*I"Bassus	*I"Tenor	*I"Altus	*I"Superius
*I'B	*I'T	*I'A	*I'S
*>[A,B,C]	*>[A,B,C]	*>[A,B,C]	*>[A,B,C]
*>A	*>A	*>A	*>A
*clefF4	*clefGv2	*clefGv2	*clefG2
*k[b-]	*k[b-]	*k[b-]	*k[b-]
*M2/1	*M2/1	*M2/1	*M2/1
*met(C)	*met(C)	*met(C)	*met(C)
=1-	=1-	=1-	=1-
!!section: Kyrie I
!!!OMD: Kyrie I
0r	1.F	0r	0r
.	2G/	.	.
=2	=2	=2	=2
0r	4A/	0r	0r
.	4F/	.	.
.	1c	.	.
.	2B-\	.	.
=3	=3	=3	=3
1.C	2c\	0r	0r
.	1c	.	.
2D\	4B-\	.	.
.	4A/	.	.
=4	=4	=4	=4
4E\	2G/	0r	0r
4C/	.	.	.
1G	1B-	.	.
2F\	2A/	.	.
=5	=5	=5	=5
1.G	2G/	1.B-	0r
.	1d	.	.
2E\	2G/	2c\	.
=6	=6	=6	=6
1D	4F/	4d\	0r
.	4G/	4B-\	.
.	4A/	1f	.
.	4F/	.	.
1C	1G	.	.
.	.	2e\	.
=7	=7	=7	=7
0F	0F	1f	1.c
.	.	2r	.
.	.	2F/	2d/
=8	=8	=8	=8
1r	1r	2G/	4e/
.	.	.	4c/
.	.	2B-\	1g
1D	2r	1A	.
.	2A/	.	2f/
=9	=9	=9	=9
2G\	2B-\	2G/	2g/
2C/	2G/	2c\	1g
1G	1B-	2.d\	.
.	.	.	4f/
.	.	4e\	4g/
=10	=10	=10	=10
0F	2A/	1f	0a
.	1c	.	.
.	.	2r	.
.	4B-\	[2f\	.
.	4A/	.	.
=11	=11	=11	=11
1D	2.B-\	2f\]	1r
.	.	4e\	.
.	8A/L	4d\	.
.	8B-/J	.	.
1C	1c	1e	[1g
=12	=12	=12	=12
1E	2r	1c	2g/]
.	2G/	.	4f/
.	.	.	4e/
1D	1A	[1d	2f/
.	.	.	4g/
.	.	.	4a/
=13	=13	=13	=13
2.GG/	2.G/	0d]	0b-
4AA/	8F/L	.	.
.	8E/J	.	.
4BB-/	4D/	.	.
4C/	4E/	.	.
4D\	4F/	.	.
4E\	4G/	.	.
=14	=14	=14	=14
1F	4A/	1c	1a
.	4B-\	.	.
.	1c	.	.
2C/	.	1r	2g/
2G\	2B-\	.	[2g/
=15	=15	=15	=15
2C/	2c\	2r	2g/]
1D	1F	2.A/	4f/
.	.	.	4e/
.	.	.	2d/
.	.	4B-\	.
2C/	2E/	2c\	[2g/
=16	=16	=16	=16
2D\	2F/	2A/	2g/]
2F\	2A/	2F/	1f
1C	1G	1c	.
.	.	.	2e/
=17	=17	=17	=17
0Fl	0Fl	0cl	0fl
!!LO:LB:i:g=z
=18||	=18||	=18||	=18||
*>B	*>B	*>B	*>B
*clefF4	*clefGv2	*clefGv2	*clefG2
*k[b-]	*k[b-]	*k[b-]	*k[b-]
*M2/1	*M2/1	*M2/1	*M2/1
*met(C|)	*met(C|)	*met(C|)	*met(C|)
!!section: Christe
!!!OMD: Christe
[0F	[0c	[0f	1r
.	.	.	1a
=19	=19	=19	=19
0F]	0c]	0f]	1a
.	.	.	1a
=20	=20	=20	=20
0C	0c	0e	1g
.	.	.	1cc
=21	=21	=21	=21
2r	2r	0d	2b-\
2F\	1F	.	2a/
1BB-	.	.	4b-\
.	.	.	4a/
.	4E/	.	4g/
.	4D/	.	4f/
=22	=22	=22	=22
0C	4E/	0c	1.e
.	4C/	.	.
.	1G	.	.
.	4F/	.	4d/
.	4E/	.	4c/
=23	=23	=23	=23
2r	2F/	1A	2d/
1D	2D/	.	1f
.	[1A	1r	.
2C/	.	.	2e/
=24	=24	=24	=24
2D\	1A]	1F	4f/
.	.	.	4e/
1F	.	.	4d/
.	.	.	4c/
.	1r	1G	1B-
2E\	.	.	.
=25	=25	=25	=25
0F	0c	1F	0A
.	.	1f	.
=26	=26	=26	=26
0r	1B-	2.d\	0r
.	.	4e\	.
.	2A/	2f\	.
.	[2G/	[2e\	.
=27	=27	=27	=27
1r	2G/]	2e\]	0r
.	4F/	4d\	.
.	4E/	4c\	.
1BB-	1D	1B-	.
=28	=28	=28	=28
[0AA	1.C	0c	1r
.	.	.	1A
.	2D/	.	.
=29	=29	=29	=29
0AA]	1E	1A	1.c
.	1E	2r	.
.	.	[2A/	4d/
.	.	.	4e/
=30	=30	=30	=30
1.D	1D	2A/]	1.f
.	.	2B-\	.
.	1r	2A/	.
2C/	.	[2A/	2e/
=31	=31	=31	=31
1BB-	1D	4A/]	1d
.	.	4G/	.
.	.	2G/	.
1AA	1E	2.A/	1c
.	.	4G/	.
=32	=32	=32	=32
1BB-	2.D/	2F/	0d
.	.	2.D/	.
.	4E/	.	.
1D	4F/	.	.
.	4G/	4E/	.
.	4A/	2F/	.
.	4B-\	.	.
=33	=33	=33	=33
0C	0c	1.G	1.e
.	.	2A/	4d/
.	.	.	4c/
=34	=34	=34	=34
0r	0r	1B-	1d
.	.	2c\	2e/
.	.	2F/	2f/
=35	=35	=35	=35
0r	0r	2r	4e/
.	.	.	4d/
.	.	2.c\	2.a/
.	.	4F/	8g/L
.	.	.	8f/J
.	.	2c\	[2g/
=36	=36	=36	=36
1r	1r	4B-\	4g/]
.	.	4A/	4f/
.	.	4G/	1f
.	.	4F/	.
1C	1c	1G	.
.	.	.	2e/
=37	=37	=37	=37
0D	0A	0F	2.f/
.	.	.	4g/
.	.	.	4a/
.	.	.	4b-\
.	.	.	[2a/
=38	=38	=38	=38
1.C	1.c	2r	2a/]
.	.	1G	2g/
.	.	.	2e/
2D\	2B-\	2F/	[2f/
=39	=39	=39	=39
1AA	2c\	4A/	4f/]
.	.	4G/	4e/
.	1A	4F/	4d/
.	.	4E/	4c/
1BB-	.	1D	1d
.	2G/	.	.
=40	=40	=40	=40
1AA	2A/	1E	1c
.	2.c\	.	.
1D	.	1F	1f
.	4B-\	.	.
.	2B-\	.	.
=41	=41	=41	=41
0Cl	0cl	0Gl	0el
!!LO:LB:i:g=z
=42||	=42||	=42||	=42||
*>C	*>C	*>C	*>C
*clefF4	*clefGv2	*clefGv2	*clefG2
*k[b-]	*k[b-]	*k[b-]	*k[b-]
*M2/1	*M2/1	*M2/1	*M2/1
*met(C)	*met(C)	*met(C)	*met(C)
!!section: Kyrie II
!!!OMD: Kyrie II
0F	0c	0r	0r
=43	=43	=43	=43
1F	1c	0A	0r
1F	1A	.	.
=44	=44	=44	=44
1.G	2G/	1.d	0r
.	1B-	.	.
4F\	4A/	2e\	.
4E\	4G/	.	.
=45	=45	=45	=45
2D\	2F/	1.f	0r
2F\	4D/	.	.
.	4E/	.	.
2D\	4F/	.	.
.	4G/	.	.
4C/	4A/	4e\	.
4BB-/	4B-\	4d\	.
=46	=46	=46	=46
0AA	2c\	1c	0r
.	1A	.	.
.	.	4c\	.
.	.	4d\	.
.	4G/	4e\	.
.	4F/	4f\	.
=47	=47	=47	=47
0r	1E	1g	0r
.	2F/	2f\	.
.	2G/	[2e\	.
=48	=48	=48	=48
2r	2A/	2e\]	0r
1D	2B-\	1d	.
.	2A/	.	.
2AA/	[2A/	2c\	.
=49	=49	=49	=49
1BB-	2A/]	0d	0r
.	4G/	.	.
.	4F/	.	.
1BB-	1G	.	.
=50	=50	=50	=50
2.AA/	2A/	2.c\	0r
.	1c	.	.
4BB-/	.	8B-/L	.
.	.	8A/J	.
2C/	.	2G/	.
[2D\	2A/	[2F/	.
=51	=51	=51	=51
2D\]	2B-\	1F]	2r
2D\	4A/	.	1f
.	4B-\	.	.
1C	[1c	1G	.
.	.	.	2e/
=52	=52	=52	=52
1F	0c_	1F	1f
2r	.	1r	2g/
[2F\	.	.	[2a/
=53	=53	=53	=53
2F\]	1c]	0r	2a/]
2E\	.	.	1g
1C	1c	.	.
.	.	.	[2cc\
=54	=54	=54	=54
1G	1d	0r	2cc\]
.	.	.	2b-\
2A\	[1c	.	2cc\
[2F\	.	.	[2a/
=55	=55	=55	=55
2F\]	1c]	1r	2a/]
4E\	.	.	4g/
4D\	.	.	4f/
1C	1c	2r	1e
.	.	[2c\	.
=56	=56	=56	=56
1D	1F	2c\]	1f
.	.	2B-\	.
2C/	2G/	1c	2e/
2FF/	2A/	.	2f/
=57	=57	=57	=57
1BB-	1D	2d\	4g/
.	.	.	4f/
.	.	2B-\	4e/
.	.	.	4d/
2AA/	2r	2c\	2c/
[2BB-/	[2F/	[2B-\	[2d/
=58	=58	=58	=58
2BB-/]	2F/]	2B-\]	2d/]
2GG/	2G/	2B-\	2g/
1D	2A/	2A/	2f/
.	2B-\	2F/	4e/
.	.	.	4d/
=59	=59	=59	=59
1C	1c	1G	1e
2F\	2F/	2F/	2a/
2E\	2G/	[2c\	2g/
=60	=60	=60	=60
2F\	2A/	4c\]	2.cc\
.	.	4d\	.
2C/	2G/	2e\	.
.	.	.	4b-\
1D	2F/	4f\	4a/
.	.	4e\	4g/
.	[2f\	4d\	2f/
.	.	4c\	.
=61	=61	=61	=61
1BB-	2f\]	2d\	4b-\
.	.	.	4a/
.	2d\	2B-\	4g/
.	.	.	4f/
1C	4c\	2G/	4e/
.	4B-\	.	4d/
.	4A/	[2c\	4c/
.	4G/	.	4B-/
=62	=62	=62	=62
1D	1F	2c\]	4A/
.	.	.	4F/
.	.	2B-\	1f
1C	1G	1c	.
.	.	.	2e/
=63	=63	=63	=63
0Fl	0Fl	0cl	0fl
==	==	==	==
*-	*-	*-	*-
!!!RDF**kern: l=long note in original notation
!!!RDF**kern: V=start of tuplet marker
!!!RDF**kern: Z=end of tuplet marker
!!!ENC:	Jesse Rodin; Victoria Chang 2012/02/27
!!!END:	2012/02/27/
!!!EED:	Jesse Rodin
!!!EEV:	2012/08/13/
!!attribution-level@Jos: 4 (questionable)
!!!ONB:	Translated from MusicXML and edited on 2012/08/13/ by Craig Sapp
!!muse2ps: T^@{OPR}^u^@{ONM}{. }@{OTL}^C^@{COA}?\n@{SCT}^i2I150v85,85,85,150Q16
